Carto/POI/SVG/hot-spring-jpn_solid_24px.svg

<svg width="24" height="24" viewBox="0 0 24 24" fill="none" xmlns="http://www.w3.org/2000/svg">
<path d="M22 16C22 17.5913 21.3679 19.1175 20.2426 20.2427C19.1174 21.3679 17.5913 22 16 22H8C6.68115 21.9977 5.39982 21.5609 4.35416 20.7572C3.30851 19.9535 2.55679 18.8276 2.21527 17.5538C1.87376 16.2799 1.96146 14.929 2.46484 13.71C2.96821 12.491 3.85919 11.4718 5 10.81V13.38C4.49893 13.9581 4.17411 14.6676 4.06407 15.4247C3.95402 16.1817 4.06336 16.9544 4.37911 17.6512C4.69487 18.3479 5.2038 18.9395 5.84557 19.3559C6.48734 19.7722 7.23503 19.9957 8 20H16C16.765 19.9957 17.5127 19.7722 18.1544 19.3559C18.7962 18.9395 19.3051 18.3479 19.6209 17.6512C19.9366 16.9544 20.046 16.1817 19.9359 15.4247C19.8259 14.6676 19.5011 13.9581 19 13.38V10.81C19.9112 11.3361 20.6681 12.0926 21.1946 13.0035C21.7212 13.9145 21.9989 14.9479 22 16ZM12.94 2.78003C11.94 2.93003 10.12 4.22003 10.57 7.18003L11.57 14.11C11.7838 15.1778 11.5912 16.2868 11.03 17.22C12.03 17.07 13.84 15.78 13.39 12.82L12.39 5.90003C12.1726 4.82789 12.3691 3.71321 12.94 2.78003ZM9.13 3.78003C8.13 3.93003 6.32 5.21003 6.77 8.18003L7.5 13.13C7.72907 14.1895 7.55055 15.2963 7 16.23C8 16.08 9.82 14.8 9.37 11.83L8.59 6.88003C8.37623 5.81229 8.56881 4.70321 9.13 3.77003V3.78003ZM17.04 3.78003C16.04 3.93003 14.23 5.21003 14.68 8.18003L15.41 13.13C15.6297 14.1977 15.4368 15.3089 14.87 16.24C15.87 16.09 17.69 14.81 17.24 11.84L16.5 6.88003C16.2743 5.81725 16.4525 4.70849 17 3.77003L17.04 3.78003Z" fill="#0F1621"/>
</svg>

<svg xmlns="http://www.w3.org/2000/svg" width="24" height="24" viewBox="0 0 24 24"><rect width="24" height="24" style="fill:none"/><path d="M22,16a6,6,0,0,1-6,6H8A6,6,0,0,1,5,10.81v2.57A4,4,0,0,0,8,20h8a4,4,0,0,0,3-6.62V10.81A6,6,0,0,1,22,16ZM12.94,2.78c-1,.15-2.82,1.44-2.37,4.4l1,6.93a4.37,4.37,0,0,1-.54,3.11c1-.15,2.81-1.44,2.36-4.4l-1-6.92A4.33,4.33,0,0,1,12.94,2.78Zm-3.81,1c-1,.15-2.81,1.43-2.36,4.4l.73,4.95A4.31,4.31,0,0,1,7,16.23c1-.15,2.82-1.43,2.37-4.4L8.59,6.88A4.37,4.37,0,0,1,9.13,3.77Zm7.91,0c-1,.15-2.81,1.43-2.36,4.4l.73,4.95a4.31,4.31,0,0,1-.54,3.11c1-.15,2.82-1.43,2.37-4.4L16.5,6.88A4.37,4.37,0,0,1,17,3.77Z" style="fill:#231f20"/></svg>
